build/images/icons/insta.svg

<svg width="26" height="27" viewBox="0 0 26 27" fill="none" xmlns="http://www.w3.org/2000/svg">
<path d="M3.34662 0.00100388H22.6534C23.0956 -0.00996443 23.5354 0.0690437 23.9461 0.233232C24.3568 0.39742 24.7299 0.643363 25.0426 0.956129C25.3554 1.2689 25.6013 1.64196 25.7655 2.05268C25.9297 2.4634 26.0087 2.9032 25.9978 3.34538V22.6521C26.0143 23.0976 25.9394 23.5418 25.7777 23.9572C25.616 24.3726 25.3709 24.7506 25.0575 25.0676C24.7442 25.3847 24.3692 25.6343 23.9557 25.8009C23.5423 25.9675 23.099 26.0477 22.6534 26.0365H3.34662C2.90096 26.0477 2.45774 25.9675 2.04426 25.8009C1.63077 25.6343 1.2558 25.3847 0.942458 25.0676C0.629112 24.7506 0.384034 24.3726 0.22233 23.9572C0.0606262 23.5418 -0.0142757 23.0976 0.00224165 22.6521V3.34538C-0.00872666 2.9032 0.0702814 2.4634 0.234469 2.05268C0.398658 1.64196 0.6446 1.2689 0.957367 0.956129C1.27013 0.643363 1.6432 0.39742 2.05392 0.233232C2.46463 0.0690437 2.90443 -0.00996443 3.34662 0.00100388ZM18.9626 2.89236C18.6527 2.89582 18.3565 3.02046 18.1373 3.23961C17.9182 3.45876 17.7935 3.75499 17.7901 4.06489V6.87629C17.7935 7.18619 17.9182 7.48242 18.1373 7.70157C18.3565 7.92071 18.6527 8.04536 18.9626 8.04882H21.9072C22.2182 8.04882 22.5164 7.92529 22.7363 7.7054C22.9562 7.4855 23.0798 7.18727 23.0798 6.87629V4.06489C23.0798 3.75391 22.9562 3.45567 22.7363 3.23578C22.5164 3.01589 22.2182 2.89236 21.9072 2.89236H18.9626ZM23.0931 11.0068H20.8013C21.0208 11.7327 21.1331 12.4869 21.1344 13.2453C21.0924 15.3539 20.2188 17.3606 18.7039 18.8281C17.189 20.2955 15.1556 21.1049 13.0466 21.0799C10.9354 21.1085 8.89856 20.3007 7.38078 18.8328C5.86301 17.365 4.98756 15.3563 4.94552 13.2453C4.95762 12.4836 5.08798 11.7284 5.33192 11.0068H2.89359V22.0126C2.8971 22.2859 3.00814 22.5468 3.20266 22.7389C3.39719 22.9309 3.65954 23.0386 3.93288 23.0385H22.0538C22.3271 23.0386 22.5895 22.9309 22.784 22.7389C22.9785 22.5468 23.0896 22.2859 23.0931 22.0126V11.0068ZM13.0466 7.88893C12.3695 7.87835 11.6968 8.00128 11.0672 8.25068C10.4375 8.50009 9.86313 8.8711 9.37687 9.34251C8.89061 9.81392 8.50197 10.3765 8.23317 10.9981C7.96436 11.6198 7.82064 12.2883 7.81022 12.9655C7.83476 14.3308 8.39984 15.6306 9.38151 16.5798C10.3632 17.529 11.6813 18.05 13.0466 18.0286C13.7221 18.0392 14.393 17.9166 15.021 17.6679C15.6491 17.4192 16.222 17.0491 16.707 16.579C17.192 16.1088 17.5797 15.5477 17.8478 14.9277C18.1159 14.3076 18.2593 13.6409 18.2697 12.9655C18.2487 11.6002 17.687 10.299 16.7078 9.34727C15.7286 8.39559 14.412 7.87113 13.0466 7.88893Z" fill="white"/>
</svg>

<svg width="26" height="27" fill="none" xmlns="http://www.w3.org/2000/svg"><path d="M3.347.001h19.306a3.264 3.264 0 013.345 3.344v19.307a3.265 3.265 0 01-3.345 3.384H3.347a3.265 3.265 0 01-3.345-3.384V3.345A3.264 3.264 0 013.347.001zm15.616 2.891a1.186 1.186 0 00-1.173 1.173v2.811a1.186 1.186 0 001.173 1.173h2.944a1.172 1.172 0 001.173-1.173V4.065a1.173 1.173 0 00-1.173-1.173h-2.944zm4.13 8.115h-2.292c.22.726.332 1.48.333 2.238a7.994 7.994 0 01-8.087 7.835 7.994 7.994 0 01-8.101-7.835 7.355 7.355 0 01.386-2.238H2.894v11.006a1.04 1.04 0 001.039 1.025h18.12a1.039 1.039 0 001.04-1.025V11.007zM13.047 7.889a5.156 5.156 0 00-5.237 5.077 5.156 5.156 0 005.237 5.063 5.143 5.143 0 005.223-5.063 5.156 5.156 0 00-5.223-5.077z" fill="#fff"/></svg>
